Numix/48/mimetypes/application-x-navi-animation.svg

<?xml version="1.0" encoding="UTF-8" standalone="no"?>
<svg
   xmlns:dc="http://purl.org/dc/elements/1.1/"
   xmlns:cc="http://creativecommons.org/ns#"
   xmlns:rdf="http://www.w3.org/1999/02/22-rdf-syntax-ns#"
   xmlns:svg="http://www.w3.org/2000/svg"
   xmlns="http://www.w3.org/2000/svg"
   xmlns:sodipodi="http://sodipodi.sourceforge.net/DTD/sodipodi-0.dtd"
   xmlns:inkscape="http://www.inkscape.org/namespaces/inkscape"
   width="48"
   viewBox="0 0 48 48"
   height="48"
   id="svg2"
   version="1.1"
   inkscape:version="0.91 r13725"
   sodipodi:docname="application-x-navi-animation.svg">
  <metadata
     id="metadata16">
    <rdf:RDF>
      <cc:Work
         rdf:about="">
        <dc:format>image/svg+xml</dc:format>
        <dc:type
           rdf:resource="http://purl.org/dc/dcmitype/StillImage" />
        <dc:title />
      </cc:Work>
    </rdf:RDF>
  </metadata>
  <defs
     id="defs14">
    <clipPath
       id="clipPath-258929573">
      <g
         transform="translate(0,-1004.3622)"
         id="g17">
        <path
           inkscape:connector-curvature="0"
           d="m -24,13 c 0,1.105 -0.672,2 -1.5,2 -0.828,0 -1.5,-0.895 -1.5,-2 0,-1.105 0.672,-2 1.5,-2 0.828,0 1.5,0.895 1.5,2 z"
           transform="matrix(15.333333,0,0,11.5,414.99999,878.8622)"
           style="fill:#1890d0"
           id="path19" />
      </g>
    </clipPath>
  </defs>
  <sodipodi:namedview
     pagecolor="#ffffff"
     bordercolor="#666666"
     borderopacity="1"
     objecttolerance="10"
     gridtolerance="10"
     guidetolerance="10"
     inkscape:pageopacity="0"
     inkscape:pageshadow="2"
     inkscape:window-width="1920"
     inkscape:window-height="1013"
     id="namedview12"
     showgrid="true"
     inkscape:zoom="32"
     inkscape:cx="14.037663"
     inkscape:cy="6.8272956"
     inkscape:window-x="0"
     inkscape:window-y="27"
     inkscape:window-maximized="1"
     inkscape:current-layer="svg2">
    <inkscape:grid
       type="xygrid"
       id="grid4157" />
  </sodipodi:namedview>
  <path
     style="fill:#757d32;fill-opacity:1"
     d="M 8,1 C 6.9714285,1 6,1.9714285 6,3 l 0,42 c 0,0.971429 1.0285714,2 2,2 l 32,0 c 0.971429,0 2,-1.028571 2,-2 L 42,14 29,1 z"
     id="path4" />
  <path
     style="fill-opacity:.196"
     d="M 29,12 29.0625,12.0625 29.21875,12 29,12 z m 2,2 11,11 0,-11 -11,0 z"
     id="path6" />
  <path
     style="fill:#fff;fill-opacity:.392"
     d="m 29,1 13,13 -11,0 c -0.971429,0 -2,-1.028571 -2,-2 L 29,1 z"
     id="path8" />
  <path
     sodipodi:nodetypes="cccccccc"
     inkscape:connector-curvature="0"
     id="path3809"
     d="M 19.900372,14 18.5,28.848455 22.078832,25.801331 23.70385,31 26.45385,30.133432 24.828833,24.934761 29.5,25.382178 Z"
     style="color:#000000;display:inline;overflow:visible;visibility:visible;fill:#f9f9f9;fill-opacity:1;fill-rule:nonzero;stroke:none;stroke-width:2.5;marker:none;enable-background:accumulate" />
  <path
     inkscape:connector-curvature="0"
     style="fill-opacity:0.19599998"
     d="m 6,35 0,10 c 0,0.971429 1.028571,2 2,2 l 32,0 c 0.971429,0 2,-1.028571 2,-2 l 0,-10 z"
     id="path10" />
  <path
     inkscape:connector-curvature="0"
     id="path4144"
     style="font-style:normal;font-variant:normal;font-weight:bold;font-stretch:normal;font-size:medium;line-height:125%;font-family:'Ubuntu Mono';-inkscape-font-specification:'Ubuntu Mono, Bold';text-align:start;letter-spacing:0px;word-spacing:0px;writing-mode:lr-tb;text-anchor:start;fill:#ffffff;fill-opacity:1;stroke:none;stroke-width:1px;stroke-linecap:butt;stroke-linejoin:miter;stroke-opacity:1"
     d="m 18.082987,45 -0.421162,-1.848142 -2.396265,0 L 14.858921,45 13,45 Q 13.639005,42.634895 14.292531,40.696284 14.946058,38.74475 15.556017,37 l 1.946058,0 q 0.639004,1.757674 1.263485,3.735056 Q 19.404564,42.699515 20,45 l -1.917013,0 z m -1.597509,-6.449111 q -0.145228,0.452342 -0.275934,0.865912 -0.116183,0.400647 -0.232365,0.801293 -0.10166,0.387722 -0.20332,0.788368 -0.08714,0.400647 -0.174274,0.827141 l 1.757262,0 q -0.08714,-0.426494 -0.174274,-0.827141 -0.08714,-0.400646 -0.20332,-0.788368 -0.10166,-0.400646 -0.232365,-0.801293 -0.116182,-0.41357 -0.26141,-0.865912 z" />
  <path
     inkscape:connector-curvature="0"
     id="path4146"
     style="font-style:normal;font-variant:normal;font-weight:bold;font-stretch:normal;font-size:medium;line-height:125%;font-family:'Ubuntu Mono';-inkscape-font-specification:'Ubuntu Mono, Bold';text-align:start;letter-spacing:0px;word-spacing:0px;writing-mode:lr-tb;text-anchor:start;fill:#ffffff;fill-opacity:1;stroke:none;stroke-width:1px;stroke-linecap:butt;stroke-linejoin:miter;stroke-opacity:1"
     d="M 25.544118,45 Q 24.92647,43.668821 24.191177,42.350566 23.470588,41.019386 22.632353,39.688207 L 22.632353,45 21,45 l 0,-8 1.455882,0 q 0.411765,0.568659 0.823529,1.240711 0.411766,0.659128 0.794119,1.318255 0.397058,0.659128 0.720587,1.279483 0.338236,0.620356 0.57353,1.085622 L 25.367647,37 27,37 l 0,8 -1.455882,0 z" />
  <path
     inkscape:connector-curvature="0"
     id="path4148"
     style="font-style:normal;font-variant:normal;font-weight:bold;font-stretch:normal;font-size:medium;line-height:125%;font-family:'Ubuntu Mono';-inkscape-font-specification:'Ubuntu Mono, Bold';text-align:start;letter-spacing:0px;word-spacing:0px;writing-mode:lr-tb;text-anchor:start;fill:#ffffff;fill-opacity:1;stroke:none;stroke-width:1px;stroke-linecap:butt;stroke-linejoin:miter;stroke-opacity:1"
     d="m 28,45 0,-1.318255 2.06107,0 0,-5.36349 -2.06107,0 L 28,37 l 6,0 0,1.318255 -2.045801,0 0,5.36349 2.045801,0 L 34,45 28,45 Z" />
</svg>

<svg xmlns="http://www.w3.org/2000/svg" viewBox="0 0 48 48">
 <defs>
  
 </defs>
 <path d="m 8 1 c -1.029 0 -2 0.971 -2 2 l 0 42 c 0 0.971 1.029 2 2 2 l 32 0 c 0.971 0 2 -1.029 2 -2 l 0 -31 -13 -13 z" style="fill:#757d32;fill-opacity:1"/>
 <path d="m 29 12 0.063 0.063 0.156 -0.063 -0.219 0 z m 2 2 11 11 0 -11 -11 0 z" style="fill-opacity:0.196"/>
 <path d="m 29 1 13 13 -11 0 c -0.971 0 -2 -1.029 -2 -2 l 0 -11 z" style="fill:#fff;fill-opacity:0.392"/>
 <path d="m 19.9 14 -1.4 14.848 3.579 -3.047 1.625 5.199 2.75 -0.867 -1.625 -5.199 4.671 0.447" style="visibility:visible;fill:#f9f9f9;fill-opacity:1;stroke:none;display:inline;color:#000;fill-rule:nonzero"/>
 <path d="m 6 35 0 10 c 0 0.971 1.029 2 2 2 l 32 0 c 0.971 0 2 -1.029 2 -2 l 0 -10 z" style="fill-opacity:0.196"/>
 <path d="m 18.08 45 -0.421 -1.848 -2.396 0 l -0.407 1.848 -1.859 0 q 0.639 -2.365 1.293 -4.304 0.654 -1.952 1.263 -3.696 l 1.946 0 q 0.639 1.758 1.263 3.735 q 0.639 1.964 1.234 4.265 l -1.917 0 z m -1.598 -6.449 q -0.145 0.452 -0.276 0.866 -0.116 0.401 -0.232 0.801 -0.102 0.388 -0.203 0.788 -0.087 0.401 -0.174 0.827 l 1.757 0 q -0.087 -0.426 -0.174 -0.827 -0.087 -0.401 -0.203 -0.788 -0.102 -0.401 -0.232 -0.801 -0.116 -0.414 -0.261 -0.866 z" style="fill:#fff;fill-opacity:1;stroke:none"/>
 <path d="m 25.544 45 q -0.618 -1.331 -1.353 -2.649 -0.721 -1.331 -1.559 -2.662 l 0 5.312 -1.632 0 l 0 -8 1.456 0 q 0.412 0.569 0.824 1.241 0.412 0.659 0.794 1.318 0.397 0.659 0.721 1.279 0.338 0.62 0.574 1.086 l 0 -4.924 1.632 0 l 0 8 -1.456 0 z" style="fill:#fff;fill-opacity:1;stroke:none"/>
 <path d="m 28 45 0 -1.318 2.061 0 0 -5.363 -2.061 0 l 0 -1.318 l 6 0 0 1.318 -2.046 0 0 5.363 2.046 0 l 0 1.318 -6 0" style="fill:#fff;fill-opacity:1;stroke:none"/>
</svg>
